X: 16110
T: Green Gates, The
R: reel
M: 4/4
K: Gmajor
GBdg egdB|GBdB egdg|eAcA eAcA|Bdef gedB|
GBdg egdB|GBdB egdg|cdef gedc|BcAF G2 Bc||
d2 gg B2 gg|dgbg egdg|eAcA eAcA|Bdef gedB|
d2 gg B2 gg|dgbg egdg|cedf gedc|BcAF G4||

